X: 64
T: the Boston Urban Ceilidh
C: Hanneke Cassel 2003
R: reel
Z: 2013 John Chambers <jc:trillian.mit.edu>
S: PDF image from Lance Ramshaw
M: C|
L: 1/8
K: D
|:::\
f3g fedf | zffg fedc | BAGB- BAGB |1,3 cBcd efge :|2,4 cdec defg :|
|:::\
ad d/d/d adad | aB B/B/B gBbB | ac c/c/c acaA | fgfe def"^4x"g :::|

%%sep 1 1 500

